X: 1546
T: Olmaz İlaç Sîne-i Sad-pâreme
C: Hacı Ârif Bey
O: Turkey
F: http://compmusic.upf.edu/node/140
N: segah--sarki--curcuna--olmaz_ilac--haci_arif_bey
N: makam= segah
N: form= sarki
N: usul= curcuna = 10/8
M: 10/8
L: 1/16
K: C _1/4B _1/4e ^f 
Q: 1/4=204
%%MIDI tuningsystem comma53
G4 c2B2 ^A2B2 c2d4c2  | d2e2 f2e2 g2f2 e2d6  | \
w:  ARANAĞME  |   | 
d2e2 =f2e2 f2f2 e2e2 d2c2  | 
w:   | 
d4 e2d2 c2B2 ^A2B4z2  | G4 c2B2 ^A2B2 c2d4c2  | \
w:   |  ARANAĞME  | 
d2e2 f2e2 g2f2 e2d6  | 
w:   | 
d2e2 =f2e2 f2f2 e2e2 d2c2  | d4 e2d2 c2B2 ^A2B4z2  | \
w:   |   | 
G6B4B4B6  | 
w:  Ol maz  i laç   | 
c6d4d4d4c2  | B3^A B2c4c2 B2B2 A2G2  | \
w:  sî ne  i sad  |  pâ *  *  re me    | 
G6B4B4B6  | c6d4d4d4c2  | 
w:  Ol maz  i laç   |  sî ne  i sad  | 
B3^A B2c4d8-d2  | z4 e2d2 c2B2 c2d6  | \
w:  pâ *  *  re me    |  SAZ  | 
d4 _2/4e2f4g4a4g2  | g4 f2a2 g2g2 =f2f4e2  | 
w:  Ça *  re  bu lun  |  maz  *  bi *  li *  rim   | 
e2d2 e2=f4f2 e2e3dc2  | d6d2 c2c2 B2B6  | \
w:  ya *  *  re me   |  Ça re  *  bu *  lun  | 
B6g2 =f2f2 e2e4d2  | 
w:  maz  bi *  li *  rim   | 
d4 c2c2 B2B2 ^A2B6  | z4 c'2b2 ^a2g2 a2b6  | \
w:  ya *  re *  me    |  SAZ  | 
g6b4b4b6  | d'6d'2 c'2c'2 b2b4^a2  | 
w:  Bak sa  ta bî  |  bân_ ı  *  ci *  han   | 
^a6b4a2 g2f2 ^e2f2  | g6b4b4b2 ^a2g2  | \
w:  ça re me   |  Bak sa  ta bî  | 
c'6c'2 _2/4b2_b2 a2a4g2  | g3f ^e2g2 f2f8-f2  | 
w:  bân_ ı  *  ci *  han   |  ça *  *  re *  me    | 
z4 g2f2 e2d2 e2f4z2  | d4 e2f4g4a4g2  | \
w:  SAZ  |  Ça *  re  bu lun  | 
g4 f2a2 g2g2 =f2f4e2  | 
w:  maz  *  bi *  li *  rim   | 
e2d2 e2=f4f2 e2e3dc2  | d6d2 c2c2 B2B6  | \
w:  ya *  *  re me    |  Ça re  *  bu *  lun  | 
B6g2 =f2f2 e2e4d2  | 
w:  maz  bi *  li *  rim   | 
d4 c2c2 B2B2 ^A2B6  | G4 c2B2 ^A2B2 c2d4c2  | \
w:  ya *  re *  me    |  ARANAĞME  | 
d2e2 f2e2 g2f2 e2d6  | 
w:   | 
d2e2 =f2e2 f2f2 e2e2 d2c2  | d4 e2d2 c2B2 ^A2B4z2  | \
w:   |   | 
G4 c2B2 ^A2B2 c2d4c2  | 
w:  ARANAĞME  | 
d2e2 f2e2 g2f2 e2d6  | d2e2 =f2e2 f2f2 e2e2 d2c2  | \
w:   |   | 
d4 e2d2 c2B2 ^A2B4z2  | 
w:   | 
G6B4B4B6  | c6d4d4d4c2  | B3^A B2c4c2 B2B2 A2G2  | \
w:  Ol maz  i laç   |  sî ne  i sad  |  pâ *  *  re me    | 
G6B4B4B6  | 
w:  Ol maz  i laç   | 
c6d4d4d4c2  | B3^A B2c4d8-d2  | z4 e2d2 c2B2 c2d6  | \
w:  sî ne  i sad  |  pâ *  *  re me    |  SAZ  | 
d4 _2/4e2f4g4a4g2  | 
w:  Ça *  re  bu lun  | 
g4 f2a2 g2g2 =f2f4e2  | e2d2 e2=f4f2 e2e3dc2  | \
w:  maz  *  bi *  li *  rim   |  ya *  *  re me   | 
d6d2 c2c2 B2B6  | 
w:  Ça re  *  bu *  lun  | 
B6g2 =f2f2 e2e4d2  | d4 c2c2 B2B2 ^A2B6  | \
w:  maz  bi *  li *  rim   |  ya *  re *  me    | 
z4 c'2b2 ^a2g2 a2b6  | 
w:  SAZ  | 
g6b4b4b6  | d'6d'2 c'2c'2 b2b4^a2  | \
w:  Bak sa  ta bî  |  bân_ ı  *  ci *  han   | 
^a6b4a2 g2f2 ^e2f2  | g6b4b4b2 ^a2g2  | 
w:  ça re me   |  Bak sa  ta bî  | 
c'6c'2 _2/4b2_b2 a2a4g2  | g3f ^e2g2 f2f8-f2  | \
w:  bân_ ı  *  ci *  han   |  ça *  *  re *  me    | 
z4 g2f2 e2d2 e2f4z2  | 
w:  SAZ  | 
d4 e2f4g4a4g2  | g4 f2a2 g2g2 =f2f4e2  | \
w:  Ça *  re  bu lun  |  maz  *  bi *  li *  rim   | 
e2d2 e2=f4f2 e2e3dc2  | 
w:  ya *  *  re me    | 
d6d2 c2c2 B2B6  | B6g2 =f2f2 e2e4d2  | \
w:  Ça re  *  bu *  lun  |  maz  bi *  li *  rim   | 
d4 c2c2 B2B2 ^A2B6  | |


